icon/cg/export.svg

<svg viewBox="0 0 24 24" fill="none" xmlns="http://www.w3.org/2000/svg" height="1em" width="1em">
  <path d="M16.9498 5.96781L15.5356 7.38203L13 4.84646V17.0421H11V4.84653L8.46451 7.38203L7.05029 5.96781L12 1.01807L16.9498 5.96781Z" fill="currentColor"/>
  <path d="M5 20.9819V10.9819H9V8.98193H3V22.9819H21V8.98193H15V10.9819H19V20.9819H5Z" fill="currentColor"/>
</svg>

<svg width="24" height="24" fill="none" xmlns="http://www.w3.org/2000/svg"><path d="m16.95 5.968-1.414 1.414L13 4.846v12.196h-2V4.847L8.465 7.382 7.05 5.968 12 1.018l4.95 4.95Z" fill="currentColor"/><path d="M5 20.982v-10h4v-2H3v14h18v-14h-6v2h4v10H5Z" fill="currentColor"/></svg>
